X: 10428
T: Donegal
R: barndance
M: 4/4
K: Dmajor
|:A2 ^G>A f2- f>e|d2 d>B A2 B>A|G2 G>A B2 B>A|G2 G>B A>G (3EFG|
A>G (3FGA f2 f>e|d>e (3dcB A>d (3cBA|G>F (3FGA B>A (3ABc|d2 A2 D4:|
|:d2 d>e f2- f>A|d2 (3cde f2 A2|e2 e>f g2 B>c|d>Ad>e f>A^G>A|
d2 (3cde f2 A2|d>cd>e f>A^G>A|e2 (3def g2 (3ABc|d2 A2 D4:|

